findly-builder/apps/searchassist/src/assets/icons/iconChevron.svg

<svg width="6" height="10" viewBox="0 0 6 10" fill="none" xmlns="http://www.w3.org/2000/svg">
<path fill-rule="evenodd" clip-rule="evenodd" d="M5.5625 5C5.5625 4.84766 5.50684 4.71582 5.39551 4.60449L1.45801 0.666992C1.34668 0.555664 1.21484 0.5 1.0625 0.5C0.910156 0.5 0.77832 0.555664 0.666992 0.666992C0.555664 0.77832 0.5 0.910156 0.5 1.0625L0.5 8.9375C0.5 9.08984 0.555664 9.22168 0.666992 9.33301C0.77832 9.44434 0.910156 9.5 1.0625 9.5C1.21484 9.5 1.34668 9.44434 1.45801 9.33301L5.39551 5.39551C5.50684 5.28418 5.5625 5.15234 5.5625 5Z" fill="#A8C8DD"/>
</svg>

<svg width="6" height="10" fill="none" xmlns="http://www.w3.org/2000/svg"><path fill-rule="evenodd" clip-rule="evenodd" d="M5.563 5a.54.54 0 0 0-.167-.396L1.458.667A.54.54 0 0 0 1.063.5a.54.54 0 0 0-.396.167.54.54 0 0 0-.167.395v7.875a.54.54 0 0 0 .167.396.54.54 0 0 0 .395.167.54.54 0 0 0 .396-.167l3.938-3.937A.54.54 0 0 0 5.563 5Z" fill="#A8C8DD"/></svg>
